!!!OTL: Jesus im Mörderhaus (3-5), S. 23
!!!id: P0976
**kern
*clefG2
*k[b-e-]
*B-:
{4f
=1
2b-
4b-
=2
[4.cc
16cc]
16dd
4dd
=3
16b-
[4.dd
16dd]
4cc
=4
2b-}
=5
{4f
=6
2b-
4dd
=7
[4.cc
16cc]
16dd
4cc
=8
16b-
[4.dd
16dd]
4cc
=9
2b-}
=10
{4f
=11
4b-
4b-
8b-
8b-
=12
4cc
4b-
4a
=13
2.g
=14
2f}
4r
=15
{2cc
4dd
=16
4b-
4f
8.f
16f
=17
4b-
4dd}
=18
{4cc
=19
4b-
4b-
4dd
=20
2cc}
=21
{4b-
=22
4ee-
4dd
4cc
=23
4dd
4cc
4b-
=24
2g
4a
=25
2b-}
==
*-
!!!minrhy: 16
!!!meters: 3/4 ]  ZZ[6
!!!cut: Jesus im Mörderhaus (3-5), S. 23
!!!reg: Lothringen
!!!trd: PINCK, Louis: Verklingende Weisen, Bd3, Metz 1933
!!!rhy1: X__  X___X__  X__.^XX__  XX__.^X__  X___
!!!rhy2: X__  X___X__  X__.^XX__  XX__.^X__  X___
!!!key: P0976  16 Bb 3/4 ]  ZZ[6
!!!mod: HEPTATONIK IONISCH]  AMBITUS[7b
!!!kad: 11-5321
!!!akz: 1211_1211_12-6-5_211_12_43-61_
!!!fot: 'a__aw_b__c__d__e__
!!!for: 'a__a__b__c__d__dw_
!!!fok: '^a_^a_^__Va_-__~__
!! PHRAS[VORWIEGEND AUFTAKTIG]
!!!fkt: yyy
!! LOTH VKL
!! PR[4] 2K[0] 2G[8] 3K[8] 3G[6] 4A[4] 4Ü[0] 5A[4] 6K[0] 6G[4]
!! 7K[2] 7G[0] 8A[0] MEHR[0] SI[37] ABS[49] SR[8] SP[29]
!! ST[16] 2k[8] 2g[29] 3k[8] 3g[8] 4d[6] 4ü[0] 5d[0] 6k[0] 6g[0]
!! 7k[0] 7g[0] 8d[0] mehr[0] si[59] dm[-22] sr[37] sp[22]
!! 1F[22] 2F[70] 3F[6] 4F[0] LF[0] 2P[2] 3P[0] 4P[0] TRI[0] DF[4] AB[50]
!! TF[0] U3K[0] U3[0] U4[0] U4Ü[0] U5[8] U6K[0] U6[0] U7K[0] U7[0]
!! N1[12] N2K[0] N2[8] N3K[0] N3[18] N4[16] N4Ü[0] N5[26] N6K[0] N6[12]
!!!n7k: 0] N7[0] O1[0] O2K[0] O2[0] O3K[0] O3[0] HÖ[0
